X:1
T:Title
%%score { ( 1 4 ) | ( 2 3 ) }
L:1/8
M:9/8
K:Ab
V:1 treble nm="Grand Piano"
V:4 treble 
V:2 bass 
V:3 bass 
V:1
 z3 z3[Q:1/4=100] .[A,CE]2 [A,CG] | [A,DG]3 [A,DF]3 dc[FB] | [GB]3 A3 z G[FA] | E3 A3 GAB | %4
[M:3/4] [Ec]6 |[M:3/8] [Ec][DB][CA] |[M:9/8] [EG]3 [DF]3 Bc[Fd] | [Ed]3 [Ec]3 FGA | E3 A3 BAG | %9
[M:3/4] [CA]6 |[M:3/8] c2 c |[M:9/8] c3 B3 Bcd | d3 c3 B2 B | B3 A3 GAB |[M:3/4] [Cc]6 | %15
[M:3/8] E z z |[M:9/8] [A,DG]3 [A,DF]3 dc[FB] | [GB]3 A3 c2 [Fd] | [Ee]3 [Ec]3 [DB][Ec][DB] | %19
[M:3/4] [CA]6 |] %20
V:2
 z3 z3 z AA,, | D,3 D,3 [B,,B,][C,=A,][D,B,] | [E,D]3 [F,C]3 [=D,_C]2 [D,C] | %3
 [E,C]3 [E,CE]3 B,A,[E,G,E] |[M:3/4] [A,,A,]6 |[M:3/8] [A,,A,]2 [A,,A,] | %6
[M:9/8] [D,A,]3 [D,A,]3 [D,B,][C,=A,][B,,B,] | [E,G,]3 [A,,A,]3 [D,A,D]2 [D,F,D] | %8
 [E,C]3 [E,C]3 [E,D]-[E,A,D][E,B,D] |[M:3/4] [A,,A,]6 |[M:3/8] [A,E]2 [A,E] | %11
[M:9/8] [E,A,E]3 [E,G,E]3 [E,E]-[E,A,E][E,B,E] | [E,B,E]3 [A,E]3 [G,B,E]2 [G,B,E] | %13
 [F,B,=D]3 [F,B,D]3 B,A,[E,G,_D] |[M:3/4] [A,,A,]6 |[M:3/8] z AA,, | %16
[M:9/8] D,3 D,3 [B,,B,][C,=A,][D,B,] | [E,D]3 [F,C]3 [E,A,E]2 [D,A,] | %18
 [C,A,]3 [A,,A,]3 [E,G,]2 [E,G,] |[M:3/4] [A,,A,]6 |] %20
V:3
 z3 z3 .A,,3 | x9 | x9 | z3 z3 .[E,E]3 |[M:3/4] x6 |[M:3/8] x3 |[M:9/8] x9 | x9 | z3 z3 .G,3 | %9
[M:3/4] x6 |[M:3/8] x3 |[M:9/8] z3 z3 .G,3 | x9 | z3 z3 .[E,_D]3 |[M:3/4] x6 |[M:3/8] [A,,A,]2 z | %16
[M:9/8] x9 | x9 | x9 |[M:3/4] x6 |] %20
V:4
 x9 | z3 z3 .F3 | z3 z3 .F3 | x9 |[M:3/4] x6 |[M:3/8] x3 |[M:9/8] z3 z3 .F3 | x9 | x9 |[M:3/4] x6 | %10
[M:3/8] x3 |[M:9/8] x9 | x9 | x9 |[M:3/4] x6 |[M:3/8] C2 [A,CG] |[M:9/8] z3 z3 .F3 | x9 | x9 | %19
[M:3/4] x6 |] %20

